flaticon/pins-and-locations/placeholder-28.svg

<svg xmlns="http://www.w3.org/2000/svg" width="32" height="32" viewBox="0 0 24 24">
    <path d="M10 7.601562C10.878906 7.601562 11.601562 6.878906 11.601562 6 11.601562 5.121094 10.878906 4.398438 10 4.398438 9.121094 4.398438 8.398438 5.121094 8.398438 6 8.398438 6.878906 9.121094 7.601562 10 7.601562zM10 5.199219C10.441406 5.199219 10.800781 5.558594 10.800781 6 10.800781 6.441406 10.441406 6.800781 10 6.800781 9.558594 6.800781 9.199219 6.441406 9.199219 6 9.199219 5.558594 9.558594 5.199219 10 5.199219zM14 8.398438C13.121094 8.398438 12.398438 9.121094 12.398438 10 12.398438 10.878906 13.121094 11.601562 14 11.601562 14.878906 11.601562 15.601562 10.878906 15.601562 10 15.601562 9.121094 14.878906 8.398438 14 8.398438zM14 10.800781C13.558594 10.800781 13.199219 10.441406 13.199219 10 13.199219 9.558594 13.558594 9.199219 14 9.199219 14.441406 9.199219 14.800781 9.558594 14.800781 10 14.800781 10.441406 14.441406 10.800781 14 10.800781zM15.078125 4.921875C14.921875 4.761719 14.679688 4.761719 14.519531 4.921875L8.921875 10.519531C8.761719 10.679688 8.761719 10.921875 8.921875 11.078125 9 11.160156 9.078125 11.199219 9.199219 11.199219 9.320312 11.199219 9.398438 11.160156 9.480469 11.078125L15.078125 5.480469C15.238281 5.320312 15.238281 5.078125 15.078125 4.921875zM15.078125 4.921875"/>
    <path d="M 12 0 C 7.601562 0 4 3.601562 4 8 C 4 10.160156 4.640625 11.480469 5.558594 13.28125 C 5.679688 13.558594 5.839844 13.839844 6 14.160156 C 8.238281 18.761719 11.640625 23.761719 11.679688 23.839844 C 11.761719 23.921875 11.878906 24 12 24 C 12.121094 24 12.238281 23.921875 12.320312 23.800781 C 12.359375 23.761719 15.761719 18.761719 18 14.160156 C 18.160156 13.839844 18.28125 13.558594 18.441406 13.28125 C 19.359375 11.480469 20 10.160156 20 8 C 20 3.601562 16.398438 0 12 0 Z M 17.71875 12.878906 C 17.601562 13.199219 17.441406 13.480469 17.28125 13.800781 C 15.480469 17.480469 12.921875 21.480469 12 22.839844 C 11.078125 21.480469 8.519531 17.519531 6.71875 13.800781 C 6.558594 13.519531 6.441406 13.199219 6.28125 12.921875 C 5.398438 11.160156 4.800781 9.960938 4.800781 8 C 4.800781 4.039062 8.039062 0.800781 12 0.800781 C 15.960938 0.800781 19.199219 4.039062 19.199219 8 C 19.199219 9.960938 18.601562 11.160156 17.71875 12.878906 Z M 17.71875 12.878906"/>
</svg>

<svg xmlns="http://www.w3.org/2000/svg" width="32" height="32" viewBox="0 0 24 24">
    <path d="M10 7.602c.879 0 1.602-.723 1.602-1.602 0-.879-.723-1.602-1.602-1.602-.879 0-1.602.723-1.602 1.602 0 .879.723 1.602 1.602 1.602zm0-2.403a.802.802 0 0 1 0 1.602.802.802 0 0 1 0-1.602zm0 0M14 8.398c-.879 0-1.602.723-1.602 1.602 0 .879.723 1.602 1.602 1.602.879 0 1.602-.723 1.602-1.602 0-.879-.723-1.602-1.602-1.602zm0 2.403a.802.802 0 0 1 0-1.602.802.802 0 0 1 0 1.602zm0 0M15.078 4.922a.385.385 0 0 0-.558 0L8.922 10.52a.385.385 0 0 0 0 .558.348.348 0 0 0 .277.121c.121 0 .2-.039.281-.12l5.598-5.599a.385.385 0 0 0 0-.558zm0 0"/>
    <path d="M12 0C7.602 0 4 3.602 4 8c0 2.16.64 3.48 1.559 5.281.12.278.28.559.441.88 2.238 4.6 5.64 9.6 5.68 9.679.082.082.199.16.32.16s.238-.078.32-.2c.04-.038 3.442-5.038 5.68-9.64.16-.32.281-.601.441-.879C19.36 11.481 20 10.161 20 8c0-4.398-3.602-8-8-8zm5.719 12.879c-.117.32-.278.601-.438.922-1.8 3.68-4.36 7.68-5.281 9.039-.922-1.36-3.48-5.32-5.281-9.04-.16-.28-.278-.6-.438-.878C5.398 11.16 4.801 9.96 4.801 8 4.8 4.04 8.039.8 12 .8c3.96 0 7.2 3.24 7.2 7.2 0 1.96-.598 3.16-1.481 4.879zm0 0"/>
</svg>
